X:1
T:Cours de contrepoint et de fugue
T:Contrepoints à quatre voix
T:Luigi Cherubini 1760-1842 
%%score [ 1 2 3 4 ]
L:1/8
Q:1/2=84
M:2/2
K:C
V:1 alto1 nm="Piano,  "
V:2 alto nm="Piano,  "
V:3 tenor nm="Piano"
V:4 bass nm="Piano"
V:1
"^1" G8 | G8 | A8 | G8 | G8 | c8 | B8 | d8 | e8 | c8 | d8 | B8 | c8 |][M:2/2]"^2" G8 | c8 | B8 | %16
 d8 | e8 | e8 | e8 | d8 | e8 | f8 | c8 | d8 | e8 |][M:2/2]"^3" G8 | G8 | G8 | c8 | c8 | c8 | _B8 | %33
 d8 | ^c8 | e8 | A8 | G8 | G8 |][K:G][M:2/2]"^4" G8 | B8 | A8 | d8 | B8 | e8 | d8 | c8 | B8 | e8 | %49
 c8 | A8 | G8 |][K:C][M:2/2]"^5" z4 c4 | G4 E4 | F4 A4 | G4 d4 | c4 B4 | A4 c4 | B4 c4 | d4 c4 | %60
 e4 d4 | c4 B4 | A4 c4- | c4 B4 | c8 |][M:2/2]"^6" c8 | c8 | d8 | e8 | e8 | c8 | d8 | d8 | e8 | %74
 c8 | c8 | d8 | e8 |][M:2/2]"^7" G8 | c8 | d8 | c8 | G8 | F8 | G8 | A8 | G8 | F8 | A8 | G8 | G8 |] %91
[K:G][M:2/2]"^8" G8 | B8 | A8 | d8 | B8 | e8 | d8 | c8 | B8 | e8 | c8 | A8 | G8 |] %104
[K:C][M:2/2]"^9" G8 | G8 | A8 | B8 | c8 | A8 | d8 | d8 | e8 | c8 | A8 | B8 | c8 |][M:2/2]"^10" G8 | %118
 c8 | B8 | d8 | e8 | d8 | d8 | d8 | e8 | c8 | d8 | B8 | c8 |][M:2/2]"^11" z2 C2 E2 G2 | %131
 c2 d2 e2 c2 | f2 e2 d2 c2 | B2 c2 d2 B2 | e2 d2 c2 B2 | c2 d2 e2 f2 | e2 d2 c2 _B2 | A2 d2 e2 d2 | %138
 ^c2 A2 B2 c2 | d2 ^c2 d2 e2 | f2 e2 d2 c2 | B2 A2 G2 d2 | e8 |][K:G][M:2/2]"^12" G8 | B8 | A8 | %146
 d8 | B8 | e8 | d8 | c8 | B8 | e8 | c8 | A8 | G8 |][K:C][M:2/2]"^13" z4 G4 | c4 G4 | B4 d4 | %159
 B4 G4 | c4 e4 | c4 A4 | B4 G4 | A4 B4 | c4 G4 | F4 c4 | A4 c4- | c4 B4 | c8 |] %169
[K:F][M:2/2]"^14" A8 | A8 | G8 | d8 | d8 | f8 | c8 | B8 | A8 | G8 | ^F8 |][K:C][M:2/2]"^15" A8 | %181
 c8 | B8 | A8 | d8 | c8 | e8 | d8 | c8 | B8 | A8 |][K:F][M:2/2]"^16" z4 A4- | A4 B4- | B4 A4- | %194
 A4 d4- | d4 c4- | c4 d4- | d4 f4- | f4 e4- | e4 d4- | d4 ^c4 | d8 |][K:C][M:2/2]"^17" A8 | A8 | %204
 B8 | c8 | d8 | f8 | e8 | A8 | c4 e4 | ^G4 B4 | ^c8 |][M:2/2]"^18" A4 d4 | c4 A4 | B4 c4 | d4 D4 | %217
 _B4 G4 | A4 F4 | c4 A4 | _B4 G4 | A4 F4 | G4 E4 | ^F8 |][M:2/2]"^19" d8 | d8 | e8 | A8 | _B8 | %229
 A8 | A8 | _B8 | A8 | G8 | ^F8 |][M:2/2]"^20" A8 | d8 | e8 | A8 | _B8 | A8 | A8 | _B8 | A8 | G8 | %245
 ^F8 |][M:2/2]"^21" A4 d4 | c4 d4 | e2 c2 d2 e2 | f2 F2 f4- | f4 e4 | f4 c4- | c4 A4 | _B6 AG | %254
 A4 d4 | G6 AG | ^F8 |] %257
V:2
 E8 | E8 | F8 | D8 | E8 | ^F8 | G8 | A8 | G8 | E8 | A8 | F8 | E8 |][M:2/2][K:alto1] G8 | A8 | G8 | %16
 B8 | G8 | c8 | c8 | B8 | c8 | c8 | A8 | G8 | G8 |][M:2/2][K:alto] C8 | E8 | D8 | G8 | E8 | A8 | %32
 G8 | F8 | E8 | A8 | F8 | D8 | C8 |][K:G][M:2/2] G8 | G8 | F8 | A8 | G8 | G8 | G8 | E8 | =F8 | E8 | %49
 E8 | F8 | D8 |][K:C][M:2/2] E8 | C8 | D8 | D8 | E8 | ^F8 | G8 | A8 | G8 | E8 | F8 | F8 | E8 |] %65
[M:2/2][K:alto1] z4 c4 | G4 A4 | B4 G4 | B4 c4 | C4 D4 | E4 ^F4 | D4 d4 | A4 B4 | c4 G4 | F4 G4 | %75
 A4 c4- | c4 B4 | G8 |][M:2/2][K:alto] C8 | E8 | D8 | G8 | E8 | A8 | G8 | F8 | E8 | A8 | F8 | D8 | %90
 C8 |][K:G][M:2/2] D8 | G8 | F8 | D8 | D8 | E8 | A8 | E8 | D8 | G8 | E8 | F8 | D8 |] %104
[K:C][M:2/2] E8 | E8 | F8 | D8 | G8 | ^F8 | G8 | A8 | G8 | C8 | D8 | F8 | E8 |] %117
[M:2/2][K:alto1] z2 E2 F2 E2 | G2 C2 G2 A2 | G2 F2 G2 A2 | B2 c2 d2 B2 | c2 B2 A2 G2 | %122
 ^F2 E2 D2 C2 | B,2 C2 D2 E2 | F2 G2 A2 B2 | c2 G2 E2 G2 | F2 E2 F2 G2 | A2 G2 A2 F2 | %128
 G2 A2 G2 F2 | E8 |][M:2/2][K:alto] C8 | E8 | D8 | G8 | E8 | A8 | G8 | F8 | E8 | A8 | F8 | D8 | %142
 C8 |][K:G][M:2/2] D8 | D8 | F8 | D8 | E8 | E8 | F8 | F8 | F8 | G8 | E8 | F8 | D8 |] %156
[K:C][M:2/2] C8 | G8 | F8 | D8 | G8 | ^F8 | G8 | D8 | E8 | C8 | C8 | D8 | E8 |][K:F][M:2/2] F8 | %170
 D8 | E8 | F8 | B8 | A8 | E4 C4 | G8 | C4 D4 | E8 | A,8 |][K:C][M:2/2] z4 E4- | E4 A4- | A4 G4- | %183
 G4 F4- | F4 A4- | A4 E4- | E4 A4- | A4 B4- | B4 A4- | A4 ^G4 | A8 |][K:F][M:2/2] D8 | F8 | E8 | %194
 D8 | G8 | F8 | A8 | G8 | F8 | E8 | D8 |][K:C][M:2/2] E8 | E8 | E8 | C8 | F8 | F8 | _B,8 | A,8- | %210
 A,4 C4 | E8 | E8 |][M:2/2] D2 E2 F2 G2 | A2 G2 F2 A2 | G2 F2 E2 G2 | F2 D2 F2 E2 | D2 C2 _B,2 D2 | %218
 F2 G2 A2 F2 | E2 D2 C2 A,2 | D2 C2 _B,2 G,2 | C2 _B,2 A,2 D2 | E2 E,2 F,2 G,2 | A,8 |][M:2/2] F8 | %225
 A8 | G8 | F8 | G8 | C8 | C8 | G8 | C4 D4 | E8 | A,8 |][M:2/2] z4 F4 | D4 E2 F2 | G8- | G4 F4- | %239
 F4 E4 | F6 ED | C4 F,2 C2 | D4 G4 | C4 D4 | E8 | A,8 |][M:2/2] z4 D4 | A4 F4 | G8 | F4 D4- | %250
 D4 G4 | C6 DE | F2 C2 F4- | F4 E4- | E4 D4- | D4 ^C4 | D8 |] %257
V:3
 C8 | C8 | A,8 | B,8 | C8 | C8 | D8 | A,8 | C8 | C8 | A,8 | D8 | G,8 |][M:2/2][K:alto] C8 | E8 | %15
 D8 | G8 | E8 | A8 | G8 | F8 | E8 | A8 | F8 | D8 | C8 |][M:2/2][K:tenor] C8 | C8 | B,8 | E8 | C8 | %31
 A,8 | _B,8 | A,8 | G,8 | A,8 | A,8 | B,8 | C8 |][K:G][M:2/2] D8 | D8 | D8 | A,8 | B,8 | C8 | D8 | %46
 G,8 | =F,8 | G,8 | A,8 | A,8 | B,8 |][K:C][M:2/2] G,8 | G,8 | A,8 | B,8 | C8 | C8 | D8 | A,8 | %60
 C8 | C8 | C8 | F,8 | G,8 |][M:2/2][K:alto] C8 | E8 | D8 | G8 | E8 | A8 | G8 | F8 | E8 | A8 | F8 | %76
 D8 | C8 |][M:2/2][K:tenor] z4 E4 | C4 B,4 | A,4 B,4 | C4 G,4 | C4 _B,4 | A,4 D4 | E4 ^C4 | %85
 A,4 B,4 | C4 G,4 | A,4 C4 | D4 C4 | B,4 G,4 | E,8 |][K:G][M:2/2] G,8 | D8 | D8 | A,8 | B,8 | ^C8 | %97
 D8 | G,4 A,4 | B,8 | B,8 | C8 | D8 | B,8 |][K:C][M:2/2] z2 G,2 A,2 B,2 | C2 B,2 A,2 G,2 | %106
 F,2 A,2 D2 C2 | B,2 D2 B,2 A,2 | G,2 C2 E2 D2 | C2 B,2 C2 A,2 | B,2 D2 C2 B,2 | A,2 D2 A,2 B,2 | %112
 C2 B,2 C2 D2 | E2 C2 D2 E2 | F2 E2 D2 C2 | B,2 A,2 G,2 F,2 | G,8 |][M:2/2][K:alto] C8 | E8 | D8 | %120
 G8 | E8 | A8 | G8 | F8 | E8 | A8 | F8 | D8 | C8 |][M:2/2][K:tenor] C8 | C8 | A,8 | B,8 | G,8 | %135
 F,8 | G,8 | A,8 | ^C8 | A,8 | A,8 | B,8 | G,8 |][K:G][M:2/2] G,8 | G,8 | A,8 | G,8 | G,8 | A,8 | %149
 A,8 | A,8 | B,8 | B,8 | C8 | D8 | B,8 |][K:C][M:2/2] z2 G,2 E,2 F,2 | G,2 A,2 B,2 C2 | %158
 D2 C2 B,2 A,2 | B,2 D2 B,2 A,2 | G,2 E,2 C,2 G,2 | C2 B,2 C2 A,2 | D2 C2 B,2 D2 | F2 E2 F2 F,2 | %164
 G,2 A,2 B,2 C2 | F,2 E,2 F,2 G,2 | A,2 C2 A,2 G,2 | F,2 E,2 F,2 D,2 | G,8 |] %169
[K:F][M:2/2][K:tenor] z4 A,4- | A,4 D4- | D4 C4- | C4 B,4- | B,4 D4- | D4 C4- | C4 F4- | F4 E4- | %177
 E4 D4- | D4 ^C4 | D8 |][K:C][M:2/2] C8 | C8 | E8 | C8 | D8 | E8 | C8 | F8 | E8 | E8 | E8 |] %191
[K:F][M:2/2][K:tenor] D8 | D8 | ^C8 | A,8 | G,8 | A,8 | A,8 | B,8 | A,8 | A,8 | A,8 |] %202
[K:C][M:2/2] A,8 | C8 | B,8 | A,8 | D8 | C8 | E8 | D8 | C8 | B,8 | A,8 |][M:2/2] z4 A,4- | %214
 A,4 D4- | D4 C4- | C4 _B,4- | B,4 D4- | D4 C4- | C4 F4- | F4 E4- | E4 D4- | D4 ^C4 | D8 |] %224
[M:2/2][K:tenor] z4 A,4- | A,4 D4- | D4 ^C4 | D2 E2 F4- | F4 E4 | F4 F,4- | F,4 F4- | F2 ED E4- | %232
 E4 D4- | D4 ^C4 | D8 |][M:2/2][K:tenor] z8 | z4 A,4 | G,2 A,2 B,2 ^C2 | D2 A,2 D4- | D4 C2 _B,2 | %240
 C4 A,4 | F,4 F4- | F4 E4- | E2 A,2 D4- | D4 ^C4 | D8 |][M:2/2] z8 | A,4 D4 | C4 G,4 | %249
 A,2 F,2 G,2 A,2 | _B,8- | B,4 A,4 | z2 F,2 A,2 C2 | D4 G,2 _B,2 | C4 F,2 A,2 | G,8 | A,8 |] %257
V:4
 C,8 | E,8 | D,8 | G,8 | E,8 | A,8 | G,8 | F,8 | E,8 | A,8 | F,8 | D,8 | C,8 |] %13
[M:2/2][K:tenor] C8 | A,8 | B,8 | G,8 | C8 | A,8 | C8 | D8 | C8 | F,8 | A,8 | B,8 | C8 |] %26
[M:2/2][K:bass] C8 | C,8 | G,8 | E,8 | A,8 | F,8 | G,8 | D,8 | E,8 | ^C,8 | D,8 | G,8 | C,8 |] %39
[K:G][M:2/2] G,8 | G,,8 | D,8 | F,8 | G,8 | C,8 | B,,8 | C,8 | D,8 | C,8 | A,,8 | D,8 | G,8 |] %52
[K:C][M:2/2] C,8 | E,8 | D,8 | G,8 | E,8 | A,8 | G,8 | F,8 | E,8 | A,8 | F,8 | D,8 | C,8 |] %65
[M:2/2][K:tenor] C8 | C8 | G,8 | E,8 | A,8 | A,8 | B,8 | D8 | C8 | A,8 | A,8 | G,8 | C8 |] %78
[M:2/2][K:bass] C8 | A,8 | F,8 | E,8 | E,8 | F,8 | E,8 | D,8 | E,8 | F,8 | D,8 | G,8 | C,8 |] %91
[K:G][M:2/2] z4 G,4 | G,,4 B,,4 | D,4 E,4 | F,4 D,4 | G,4 F,4 | E,4 A,4 | F,4 D,4 | E,4 F,4 | %99
 G,4 F,4 | E,4 G,4 | A,4 A,,4 | D,4 F,4 | G,8 |][K:C][M:2/2] C,8 | E,8 | D,8 | G,8 | E,8 | A,8 | %110
 G,8 | F,8 | E,8 | A,8 | F,8 | D,8 | C,8 |][M:2/2][K:tenor] C8 | C,8 | G,8 | G,8 | C,8 | D,8 | %123
 G,8 | D,8 | C,8 | F,8 | D,8 | G,8 | C,8 |][M:2/2][K:bass] C8 | A,8 | F,8 | G,8 | C,8 | A,,8 | %136
 C,8 | F,8 | A,8 | F,8 | D,8 | G,8 | C,8 |][K:G][M:2/2] z2 B,2 D2 C2 | B,2 A,2 B,2 G,2 | %145
 F,2 E,2 D,2 C,2 | B,,2 A,,2 G,,2 B,,2 | E,2 F,2 E,2 D,2 | ^C,2 A,,2 B,,2 C,2 | D,2 E,2 F,2 G,2 | %150
 A,2 G,2 F,2 E,2 | ^D,2 B,,2 B,2 A,2 | G,2 F,2 E,2 G,2 | A,2 B,2 A,2 G,2 | F,2 D,2 E,2 F,2 | G,8 |] %156
[K:C][M:2/2] C,8 | E,8 | D,8 | G,8 | E,8 | A,8 | G,8 | F,8 | E,8 | A,8 | F,8 | D,8 | C,8 |] %169
[K:F][M:2/2] D,8 | F,8 | E,8 | D,8 | G,8 | F,8 | A,8 | G,8 | F,8 | E,8 | D,8 |][K:C][M:2/2] A,8 | %181
 A,,8 | E,8 | F,8 | D,8 | A,8 | A,,8 | D,8 | E,8- | E,8 | A,8 |][K:F][M:2/2] D,8 | D,8 | A,8 | %194
 F,8 | E,8 | F,8 | F,,8 | G,,8 | D,8 | A,8 | D,8 |][K:C][M:2/2] z4 A,,4- | A,,4 A,4- | A,4 G,4- | %205
 G,4 F,4- | F,4 _B,4- | B,4 A,4- | A,4 G,4- | G,4 F,4- | F,4 E,4- | E,4 ^G,4 | A,8 |][M:2/2] D,8 | %214
 F,8 | E,8 | D,8 | G,8 | F,8 | A,8 | G,8 | F,8 | E,8 | D,8 |][M:2/2] D,8 | F,8 | E,8 | D,8 | G,8 | %229
 F,8 | A,8 | G,8 | F,8 | E,8 | D,8 |][M:2/2] D,8 | F,8 | E,8 | D,8 | G,8 | F,8 | A,8 | G,8 | F,8 | %244
 E,8 | D,8 |][M:2/2] D,8 | F,8 | E,8 | D,8 | G,8 | F,8 | A,8 | G,8 | F,8 | E,8 | D,8 |] %257

